client/resources/iconsets/breeze/src/svg/16x16/icon_task_detailed.svg

<svg xmlns="http://www.w3.org/2000/svg" width="16" height="16" viewBox="0 0 16 16">
 <path style="fill:#6d6d70"
       d="M 2 1 C 1.446 1 1 1.446 1 2 C 1 2.554 1.446 3 2 3 L 3 3 C 3.554 3 4 2.554 4 2 C 4 1.446 3.554 1 3 1 L 2 1 z M 7 1 C 6.446 1 6 1.446 6 2 C 6 2.554 6.446 3 7 3 L 8 3 C 8.554 3 9 2.554 9 2 C 9 1.446 8.554 1 8 1 L 7 1 z M 12 1 C 11.446 1 11 1.446 11 2 C 11 2.554 11.446 3 12 3 L 13 3 C 13.554 3 14 2.554 14 2 C 14 1.446 13.554 1 13 1 L 12 1 z M 2 5 C 1.446 5 1 5.446 1 6 C 1 6.554 1.446 7 2 7 L 3 7 C 3.554 7 4 6.554 4 6 C 4 5.446 3.554 5 3 5 L 2 5 z M 7 5 C 6.446 5 6 5.446 6 6 C 6 6.554 6.446 7 7 7 L 8 7 C 8.554 7 9 6.554 9 6 C 9 5.446 8.554 5 8 5 L 7 5 z M 12 5 C 11.446 5 11 5.446 11 6 C 11 6.554 11.446 7 12 7 L 13 7 C 13.554 7 14 6.554 14 6 C 14 5.446 13.554 5 13 5 L 12 5 z M 2 9 C 1.446 9 1 9.446 1 10 C 1 10.554 1.446 11 2 11 L 3 11 C 3.554 11 4 10.554 4 10 C 4 9.446 3.554 9 3 9 L 2 9 z M 7 9 C 6.446 9 6 9.446 6 10 C 6 10.554 6.446 11 7 11 L 8 11 C 8.554 11 9 10.554 9 10 C 9 9.446 8.554 9 8 9 L 7 9 z M 12 9 C 11.446 9 11 9.446 11 10 C 11 10.554 11.446 11 12 11 L 13 11 C 13.554 11 14 10.554 14 10 C 14 9.446 13.554 9 13 9 L 12 9 z M 2 13 C 1.446 13 1 13.446 1 14 C 1 14.554 1.446 15 2 15 L 3 15 C 3.554 15 4 14.554 4 14 C 4 13.446 3.554 13 3 13 L 2 13 z M 7 13 C 6.446 13 6 13.446 6 14 C 6 14.554 6.446 15 7 15 L 8 15 C 8.554 15 9 14.554 9 14 C 9 13.446 8.554 13 8 13 L 7 13 z M 12 13 C 11.446 13 11 13.446 11 14 C 11 14.554 11.446 15 12 15 L 13 15 C 13.554 15 14 14.554 14 14 C 14 13.446 13.554 13 13 13 L 12 13 z "
       />
</svg>

<svg xmlns="http://www.w3.org/2000/svg" width="16" height="16"><path d="M2 1a1 1 0 0 0-1 1 1 1 0 0 0 1 1h1a1 1 0 0 0 1-1 1 1 0 0 0-1-1H2zm5 0a1 1 0 0 0-1 1 1 1 0 0 0 1 1h1a1 1 0 0 0 1-1 1 1 0 0 0-1-1H7zm5 0a1 1 0 0 0-1 1 1 1 0 0 0 1 1h1a1 1 0 0 0 1-1 1 1 0 0 0-1-1h-1zM2 5a1 1 0 1 0 0 2h1a1 1 0 1 0 0-2H2zm5 0a1 1 0 1 0 0 2h1a1 1 0 1 0 0-2H7zm5 0a1 1 0 1 0 0 2h1a1 1 0 1 0 0-2h-1zM2 9a1 1 0 1 0 0 2h1a1 1 0 1 0 0-2H2zm5 0a1 1 0 1 0 0 2h1a1 1 0 1 0 0-2H7zm5 0a1 1 0 1 0 0 2h1a1 1 0 1 0 0-2h-1zM2 13a1 1 0 1 0 0 2h1a1 1 0 1 0 0-2H2zm5 0a1 1 0 1 0 0 2h1a1 1 0 1 0 0-2H7zm5 0a1 1 0 1 0 0 2h1a1 1 0 1 0 0-2h-1z" fill="#6d6d70"/></svg>
